X: 25765
T: Mary's
R: waltz
M: 3/4
K: Dmajor
D3 E F2|B4 cd|c3 BA2|B6|B4 F2|F3 E F2|A4 F2|B3 F E2|
D3 E F2|B4 cd|c3 BA2|B6|B4 F2|F3 E D2|E6|E2 F2 G2||
A2 (F2 F) f|e2 d2 A2|A2 (G2 G) f|e2 d2 B2|A2 (F2 F) f|e2 d2 A2|A2 (G2 G) f|e4 dB|
A2 (F2 F) f|e2 d2 A2|A2 (G2 G) f|e2 d2 B2|A2 (F2 F) f|e2 d2 A2|A2 (G2 G) f|e6||

